X:26
T:Broken Pledge
Z: id:dc-reel-26
M:C
L:1/8
K:D Dorian
A|dcAG ADDB|cAGF ECCE|DEFG Addc|AcGc Adfe|!
dcAG A2dB|cAGF ECCE|DEFG Addc|AcGc ADD:|!
A|dcAG Acde|fAdf ecAB|cAGE GAcd|ecc2 eage|!
dcAG Acde|fAdf ecAG|F2FE FGAB|cAGE FDD:|!